img/svg/subject.svg

<?xml version="1.0" encoding="utf-8"?><!DOCTYPE svg PUBLIC "-//W3C//DTD SVG 1.1//EN" "http://www.w3.org/Graphics/SVG/1.1/DTD/svg11.dtd"><svg version="1.1" baseProfile="full" xmlns="http://www.w3.org/2000/svg" xmlns:xlink="http://www.w3.org/1999/xlink" xmlns:ev="http://www.w3.org/2001/xml-events"   height="14px"   width="15px" ><path opacity="0.302" fill="rgb( 0, 89, 158 )" d="M9.404,2.98700000000008 C9.27200000000005,2.98700000000008 9.15300000000002,3.03699999999981 9.05899999999997,3.11599999999999 C9.05899999999997,3.11599999999999 9.05399999999997,3.11099999999988 9.05399999999997,3.11099999999988 C9.05399999999997,3.11099999999988 4.83699999999999,7.31800000000021 4.83699999999999,7.31800000000021 C4.35900000000004,7.79599999999982 4.16300000000001,8.26200000000017 4.15999999999997,8.92799999999988 C4.15999999999997,9.44900000000007 4.35299999999995,9.91800000000012 4.702,10.248 C5.06200000000001,10.5880000000002 5.56299999999999,10.768 6.14999999999998,10.768 C6.14999999999998,10.768 6.16200000000003,10.768 6.16200000000003,10.768 C6.77300000000002,10.7660000000001 7.34500000000003,10.5250000000001 7.77200000000005,10.0909999999999 C7.77200000000005,10.0909999999999 12.665,5.19500000000016 12.665,5.19500000000016 C13.905,3.95499999999993 13.937,2.18600000000015 12.7430000000001,0.99099999999999 C12.15,0.39800000000014 11.361,0.07099999999991 10.521,0.07099999999991 C9.68200000000002,0.07099999999991 8.89300000000003,0.39800000000014 8.30100000000004,0.99099999999999 C8.30100000000004,0.99099999999999 2.17200000000003,7.1239999999998 2.17200000000003,7.1239999999998 C0.60900000000004,8.6880000000001 0.60900000000004,11.232 2.17200000000003,12.7959999999998 C2.92700000000002,13.5520000000001 3.93399999999997,13.9690000000001 5.005,13.9690000000001 C6.077,13.9690000000001 7.08299999999997,13.5520000000001 7.83900000000006,12.7959999999998 C7.83900000000006,12.7959999999998 14.184,6.42299999999977 14.184,6.42299999999977 C14.184,6.42299999999977 14.324,6.28600000000006 14.324,6.05400000000009 C14.324,5.75700000000006 14.083,5.51499999999987 13.7859999999999,5.51499999999987 C13.645,5.51499999999987 13.518,5.57099999999991 13.422,5.65999999999985 C13.422,5.65999999999985 13.42,5.65900000000011 13.42,5.65900000000011 C13.42,5.65900000000011 7.07500000000005,12.0309999999999 7.07500000000005,12.0309999999999 C6.52300000000002,12.5839999999998 5.78800000000001,12.8879999999999 5.005,12.8879999999999 C4.22299999999996,12.8879999999999 3.48800000000006,12.5839999999998 2.93600000000004,12.0309999999999 C1.79499999999996,10.8890000000001 1.79499999999996,9.03099999999995 2.93600000000004,7.88900000000012 C2.93600000000004,7.88900000000012 9.06500000000005,1.75599999999986 9.06500000000005,1.75599999999986 C9.45299999999997,1.36700000000019 9.971,1.15299999999979 10.521,1.15299999999979 C11.072,1.15299999999979 11.59,1.36700000000019 11.979,1.75599999999986 C12.366,2.14399999999978 12.561,2.60500000000002 12.542,3.08899999999994 C12.523,3.56500000000005 12.302,4.029 11.901,4.42999999999984 C11.901,4.42999999999984 6.99699999999996,9.33699999999999 6.99699999999996,9.33699999999999 C6.77300000000002,9.5619999999999 6.47500000000002,9.68600000000015 6.15899999999999,9.6869999999999 C5.55600000000004,9.6869999999999 5.24099999999999,9.30699999999979 5.24099999999999,8.93199999999979 C5.24199999999996,8.61599999999999 5.36599999999999,8.31800000000021 5.59100000000001,8.09299999999985 C5.59100000000001,8.09299999999985 9.81799999999998,3.8760000000002 9.81799999999998,3.8760000000002 C9.81799999999998,3.8760000000002 9.81399999999996,3.87100000000009 9.81399999999996,3.87100000000009 C9.89300000000003,3.77799999999979 9.94200000000001,3.6579999999999 9.94200000000001,3.52599999999984 C9.94200000000001,3.22800000000007 9.70100000000002,2.98700000000008 9.404,2.98700000000008 Z "/></svg>

<svg baseProfile="full" xmlns="http://www.w3.org/2000/svg" height="14" width="15"><path opacity=".302" fill="rgb( 0, 89, 158 )" d="M9.404 2.987c-.132 0-.251.05-.345.129l-.005-.005-4.217 4.207c-.478.478-.674.944-.677 1.61 0 .521.193.99.542 1.32.36.34.861.52 1.448.52h.012c.611-.002 1.183-.243 1.61-.677l4.893-4.896c1.24-1.24 1.272-3.009.078-4.204-.593-.593-1.382-.92-2.222-.92-.839 0-1.628.327-2.22.92l-6.129 6.133c-1.563 1.564-1.563 4.108 0 5.672.755.756 1.762 1.173 2.833 1.173 1.072 0 2.078-.417 2.834-1.173l6.345-6.373s.14-.137.14-.369c0-.297-.241-.539-.538-.539-.141 0-.268.056-.364.145l-.002-.001-6.345 6.372c-.552.553-1.287.857-2.07.857-.782 0-1.517-.304-2.069-.857-1.141-1.142-1.141-3 0-4.142l6.129-6.133c.388-.389.906-.603 1.456-.603.551 0 1.069.214 1.458.603.387.388.582.849.563 1.333-.019.476-.24.94-.641 1.341l-4.904 4.907c-.224.225-.522.349-.838.35-.603 0-.918-.38-.918-.755.001-.316.125-.614.35-.839l4.227-4.217-.004-.005c.079-.093.128-.213.128-.345 0-.298-.241-.539-.538-.539z"/></svg>
